X:1
T:The Connaught Man's Ramble
M:6/8
L:1/8
Q:80
C:arr. Kent Hiestand
S:Jig
K:HP
|: A | \
{g}GA{d}A{g}dA{d}A | \
{g}BAB{g}dAG | \
{g}GA{d}A{g}Afe |
{g}dB{G}B{g}BAG | \
{g}GA{d}A{g}dA{d}A | \
{g}BAB{g}def |
{a}gfedfe | \
{g}dB{G}B{gBd}B2 :: \
g |
{g}fa{g}aga{g}a | \
{g}afd{c}dcd | \
{g}fa{g}aga{g}a |
fed{gef}e2g{g}fa{g}aga{g}a | \
{g}afd{c}def | \
{a}gfg{a}efe |
{g}dB{G}B{gBd}B2 :|
